src/assets/imgs/profit-one-page/bg2.svg

<svg fill="none" height="1827" preserveAspectRatio="none slice" viewBox="0 0 1370 1827" width="1370" xmlns="http://www.w3.org/2000/svg" xmlns:xlink="http://www.w3.org/1999/xlink"><filter id="a" color-interpolation-filters="sRGB" filterUnits="userSpaceOnUse" height="1826.34" width="1370" x="0" y="0"><feFlood flood-opacity="0" result="BackgroundImageFix"/><feColorMatrix in="SourceAlpha" type="matrix" values="0 0 0 0 0 0 0 0 0 0 0 0 0 0 0 0 0 0 127 0"/><feOffset dy="4"/><feGaussianBlur stdDeviation="5"/><feColorMatrix type="matrix" values="0 0 0 0 0 0 0 0 0 0 0 0 0 0 0 0 0 0 0.25 0"/><feBlend in2="BackgroundImageFix" mode="normal" result="effect1_dropShadow"/><feBlend in="SourceGraphic" in2="effect1_dropShadow" mode="normal" result="shape"/></filter><filter id="b" color-interpolation-filters="sRGB" filterUnits="userSpaceOnUse" height="1778.36" width="1359" x="6" y="16.9883"><feFlood flood-opacity="0" result="BackgroundImageFix"/><feColorMatrix in="SourceAlpha" type="matrix" values="0 0 0 0 0 0 0 0 0 0 0 0 0 0 0 0 0 0 127 0"/><feOffset dy="4"/><feGaussianBlur stdDeviation="2"/><feColorMatrix type="matrix" values="0 0 0 0 0 0 0 0 0 0 0 0 0 0 0 0 0 0 0.25 0"/><feBlend in2="BackgroundImageFix" mode="normal" result="effect1_dropShadow"/><feBlend in="SourceGraphic" in2="effect1_dropShadow" mode="normal" result="shape"/></filter><radialGradient id="c" cx="0" cy="0" gradientTransform="matrix(1706.35894653 1621.53404811 -1235.87602929 1300.52657348 425.075 591.602)" gradientUnits="userSpaceOnUse" r="1"><stop offset="0" stop-color="#414141"/><stop offset="1"/></radialGradient><g filter="url(#a)"><path d="m10 171.527c0-24.198 0-58.39 0-73.7153 279.082-268.8437 897.359 159.1403 1350-47.6517v181.86 1256.17 149c-460.984 233.12-1126.5 207.43-1349.9999 74.56 0-253.55-.0001-1382.414-.0001-1540.223z" fill="#942fe5"/></g><g filter="url(#b)"><path d="m10 228.864c0-40.504 0-102.576 0-135.19 308.068-247.402 944.887 200.898 1350-1.5781 0 199.8921 1 1271.4241 1 1315.0841s-1 167.8-1 227.13c-448.36 223.67-1110 167.71-1350 50.09 0-198.84-.00001-1415.031 0-1455.536z" fill="url(#c)"/></g></svg>

<svg width="1370" height="1827" preserveAspectRatio="none slice" viewBox="0 0 1370 1827" fill="none" xmlns="http://www.w3.org/2000/svg">
<g filter="url(#filter0_d)">
<path d="M10 171.527C10 147.329 10 113.137 10 97.8117C289.082 -171.032 907.359 256.952 1360 50.16C1360 89.9914 1360 168.37 1360 232.02C1360 295.67 1360 1443.47 1360 1488.19C1360 1532.9 1360 1574.98 1360 1637.19C899.016 1870.31 233.5 1844.62 10.0001 1711.75C10.0001 1458.2 10 329.336 10 171.527Z" fill="#942FE5"/>
</g>
<g filter="url(#filter1_d)">
<path d="M10 228.864C10 188.36 10 126.288 10 93.674C318.068 -153.728 954.887 294.572 1360 92.0959C1360 291.988 1361 1363.52 1361 1407.18C1361 1450.84 1360 1574.98 1360 1634.31C911.64 1857.98 250 1802.02 10 1684.4C10 1485.56 9.99999 269.369 10 228.864Z" fill="url(#paint0_radial)"/>
</g>
<defs>
<filter id="filter0_d" x="0" y="0" width="1370" height="1826.34" filterUnits="userSpaceOnUse" color-interpolation-filters="sRGB">
<feFlood flood-opacity="0" result="BackgroundImageFix"/>
<feColorMatrix in="SourceAlpha" type="matrix" values="0 0 0 0 0 0 0 0 0 0 0 0 0 0 0 0 0 0 127 0"/>
<feOffset dy="4"/>
<feGaussianBlur stdDeviation="5"/>
<feColorMatrix type="matrix" values="0 0 0 0 0 0 0 0 0 0 0 0 0 0 0 0 0 0 0.25 0"/>
<feBlend mode="normal" in2="BackgroundImageFix" result="effect1_dropShadow"/>
<feBlend mode="normal" in="SourceGraphic" in2="effect1_dropShadow" result="shape"/>
</filter>
<filter id="filter1_d" x="6" y="16.9883" width="1359" height="1778.36" filterUnits="userSpaceOnUse" color-interpolation-filters="sRGB">
<feFlood flood-opacity="0" result="BackgroundImageFix"/>
<feColorMatrix in="SourceAlpha" type="matrix" values="0 0 0 0 0 0 0 0 0 0 0 0 0 0 0 0 0 0 127 0"/>
<feOffset dy="4"/>
<feGaussianBlur stdDeviation="2"/>
<feColorMatrix type="matrix" values="0 0 0 0 0 0 0 0 0 0 0 0 0 0 0 0 0 0 0.25 0"/>
<feBlend mode="normal" in2="BackgroundImageFix" result="effect1_dropShadow"/>
<feBlend mode="normal" in="SourceGraphic" in2="effect1_dropShadow" result="shape"/>
</filter>
<radialGradient id="paint0_radial" cx="0" cy="0" r="1" gradientUnits="userSpaceOnUse" gradientTransform="translate(425.075 591.602) rotate(43.5399) scale(2353.94 1794.09)">
<stop stop-color="#414141"/>
<stop offset="1"/>
</radialGradient>
</defs>
</svg>
